public/assets/images/brand/10.svg

<svg width="89" height="27" viewBox="0 0 89 27" fill="none" xmlns="http://www.w3.org/2000/svg">
<g clip-path="url(#clip0_903_22346)">
<mask id="mask0_903_22346" style="mask-type:luminance" maskUnits="userSpaceOnUse" x="0" y="0" width="89" height="27">
<path d="M89 0H0V27H89V0Z" fill="white"/>
</mask>
<g mask="url(#mask0_903_22346)">
<path d="M46.8954 6.78462C46.8954 7.75846 46.0885 8.54308 45.0869 8.54308C44.0853 8.54308 43.2783 7.75846 43.2783 6.78462C43.2783 5.81077 44.0568 5.02615 45.0869 5.02615C46.117 5.05385 46.8954 5.83846 46.8954 6.78462ZM39.4475 10.3246V10.7585C39.4475 10.7585 38.5883 9.67846 36.7513 9.67846C33.7227 9.67846 31.3588 11.9215 31.3588 15.0277C31.3588 18.1108 33.6943 20.3769 36.7513 20.3769C38.6121 20.3769 39.4475 19.2692 39.4475 19.2692V19.7308C39.4475 19.9477 39.6137 20.1092 39.8368 20.1092H42.0868V9.94615H39.8368C39.6137 9.94615 39.4475 10.1354 39.4475 10.3246ZM39.4475 16.8369C39.0298 17.4323 38.1991 17.9446 37.1975 17.9446C35.4174 17.9446 34.055 16.8646 34.055 15.0231C34.055 13.1862 35.4174 12.1062 37.1975 12.1062C38.1706 12.1062 39.0583 12.6462 39.4475 13.2138V16.8369ZM43.753 9.94615H46.4208V20.1092H43.753V9.94615ZM83.6129 9.67385C81.7806 9.67385 80.9166 10.7538 80.9166 10.7538V5.05385H78.2489V20.1092H80.4989C80.722 20.1092 80.8881 19.92 80.8881 19.7308V19.2738C80.8881 19.2738 81.7521 20.3815 83.5844 20.3815C86.6129 20.3815 88.9769 18.1108 88.9769 15.0323C88.9769 11.9446 86.6177 9.67385 83.6129 9.67385ZM83.1714 17.9169C82.1413 17.9169 81.3391 17.4046 80.9214 16.8092V13.1862C81.3391 12.6462 82.2268 12.0785 83.1714 12.0785C84.9515 12.0785 86.3139 13.1585 86.3139 14.9954C86.3091 16.8369 84.9515 17.9169 83.1714 17.9169ZM76.858 14.0815V20.1369H74.1902V14.3769C74.1902 12.7015 73.6348 12.0277 72.1348 12.0277C71.3278 12.0277 70.4971 12.4338 69.9655 13.0292V20.1092H67.2977V9.94615H69.4101C69.6332 9.94615 69.7993 10.1354 69.7993 10.3246V10.7585C70.5778 9.97385 71.6079 9.67846 72.6332 9.67846C73.801 9.67846 74.7741 10.0015 75.5526 10.6523C76.4972 11.4046 76.858 12.3785 76.858 14.0815ZM60.8229 9.67385C58.9906 9.67385 58.1267 10.7538 58.1267 10.7538V5.05385H55.4589V20.1092H57.7089C57.932 20.1092 58.0982 19.92 58.0982 19.7308V19.2738C58.0982 19.2738 58.9621 20.3815 60.7944 20.3815C63.823 20.3815 66.1869 18.1108 66.1869 15.0323C66.2154 11.9446 63.8514 9.67385 60.8229 9.67385ZM60.3767 17.9169C59.3466 17.9169 58.5444 17.4046 58.1267 16.8092V13.1862C58.5444 12.6462 59.4321 12.0785 60.3767 12.0785C62.1568 12.0785 63.5192 13.1585 63.5192 14.9954C63.5192 16.8369 62.1568 17.9169 60.3767 17.9169ZM53.1471 9.67385C53.9541 9.67385 54.3718 9.80769 54.3718 9.80769V12.2123C54.3718 12.2123 52.1503 11.4831 50.7594 13.0246V20.1323H48.0917V9.94615H50.3417C50.5648 9.94615 50.731 10.1354 50.731 10.3246V10.7585C51.2294 10.1908 52.3164 9.67385 53.1471 9.67385ZM25.4346 19.1908C25.297 18.8677 25.1546 18.5169 25.0169 18.2169C24.7938 17.7323 24.5707 17.2708 24.3761 16.8369L24.3476 16.8092C22.4298 12.7569 20.3744 8.64923 18.2051 4.59231L18.1196 4.43077C17.8918 4.01077 17.6687 3.58615 17.455 3.16154C17.175 2.67692 16.8997 2.16 16.4534 1.67538C15.5705 0.595385 14.2889 0 12.9265 0C11.5356 0 10.2872 0.595384 9.37105 1.62C8.95332 2.10462 8.64951 2.62154 8.36945 3.10615C8.15109 3.53077 7.93273 3.95538 7.70488 4.37538L7.61943 4.53692C5.47857 8.58923 3.39467 12.6969 1.47692 16.7538L1.44844 16.8092C1.25381 17.2431 1.03071 17.7 0.807602 18.1892C0.669941 18.4846 0.53228 18.8123 0.389873 19.1631C0.0291069 20.1646 -0.0848191 21.1108 0.0575884 22.0846C0.361391 24.1108 1.75224 25.8138 3.66999 26.5708C4.39153 26.8662 5.14154 27.0046 5.92003 27.0046C6.14314 27.0046 6.41846 26.9769 6.64157 26.9492C7.55772 26.8431 8.50236 26.5431 9.42326 26.0308C10.5625 25.4077 11.6448 24.5169 12.8695 23.22C14.0942 24.5169 15.205 25.4077 16.3158 26.0308C17.2319 26.5431 18.1766 26.8431 19.0975 26.9492C19.3206 26.9769 19.6007 27.0046 19.819 27.0046C20.5975 27.0046 21.376 26.8708 22.0691 26.5708C24.0153 25.8138 25.3777 24.0831 25.6815 22.0846C25.9093 21.1338 25.7954 20.1877 25.4346 19.1908ZM12.898 20.5938C11.398 18.7569 10.4249 17.0262 10.0926 15.5677C9.95492 14.9446 9.92644 14.4046 10.0071 13.92C10.0641 13.4862 10.2302 13.1077 10.4533 12.7846C10.9803 12.0554 11.8727 11.5938 12.898 11.5938C13.9281 11.5938 14.8442 12.0277 15.3427 12.7846C15.5658 13.1077 15.7319 13.4862 15.7889 13.92C15.8743 14.4046 15.8458 14.9723 15.7034 15.5677C15.3759 16.9985 14.4028 18.7292 12.898 20.5938ZM23.9916 21.8631C23.7969 23.2662 22.8238 24.4846 21.4615 25.0246C20.7921 25.2923 20.0706 25.3754 19.3491 25.2923C18.656 25.2092 17.9582 24.9969 17.2367 24.5908C16.2351 24.0508 15.2335 23.2108 14.0657 21.9692C15.8981 19.7815 17.0136 17.7785 17.4313 15.9969C17.6259 15.1569 17.6544 14.4 17.569 13.6985C17.4598 13.0246 17.2082 12.4015 16.819 11.8615C15.955 10.6431 14.512 9.94154 12.898 9.94154C11.2841 9.94154 9.84099 10.6708 8.97705 11.8615C8.5878 12.4015 8.33622 13.0246 8.22704 13.6985C8.11786 14.4 8.14159 15.1846 8.3647 15.9969C8.78243 17.7785 9.92169 19.8092 11.7255 21.9969C10.5863 23.2385 9.55618 24.0785 8.55457 24.6185C7.83304 25.0246 7.13525 25.2415 6.4422 25.32C5.69218 25.4031 4.97065 25.2923 4.32982 25.0523C2.96745 24.5123 1.99433 23.2938 1.79971 21.8908C1.71426 21.2169 1.77123 20.5385 2.05129 19.7815C2.13199 19.5092 2.2744 19.2415 2.41206 18.9185C2.60668 18.4846 2.82979 18.0277 3.0529 17.5662L3.08138 17.5108C4.99913 13.4815 7.05455 9.37385 9.19541 5.37692L9.28085 5.21538C9.50396 4.80923 9.72706 4.38 9.95017 3.97385C10.1733 3.54 10.4249 3.13385 10.7287 2.78308C11.3125 2.13692 12.091 1.78154 12.9502 1.78154C13.8142 1.78154 14.5879 2.13231 15.1718 2.78308C15.4756 3.13385 15.7272 3.54 15.9503 3.97385C16.1734 4.38 16.3965 4.81385 16.6196 5.21538L16.705 5.37692C18.8127 9.39231 20.8444 13.4492 22.7906 17.5385V17.5662C23.0137 18 23.2083 18.4846 23.4314 18.9185C23.5691 19.2415 23.7115 19.5138 23.7922 19.7815C24.02 20.4877 24.1007 21.1615 23.9916 21.8631Z" fill="#EAF0FF"/>
</g>
</g>
<defs>
<clipPath id="clip0_903_22346">
<rect width="89" height="27" fill="white"/>
</clipPath>
</defs>
</svg>

<svg xmlns="http://www.w3.org/2000/svg" width="89" height="27" fill="none" viewBox="0 0 89 27"><g clip-path="url(#a)"><mask id="b" width="89" height="27" x="0" y="0" maskUnits="userSpaceOnUse" style="mask-type:luminance"><path fill="#fff" d="M89 0H0v27h89z"/></mask><g mask="url(#b)"><path fill="#eaf0ff" d="M46.895 6.785c0 .973-.806 1.758-1.808 1.758s-1.809-.785-1.809-1.758c0-.974.779-1.759 1.809-1.759 1.03.028 1.808.812 1.808 1.759m-7.448 3.54v.434s-.859-1.08-2.696-1.08c-3.028 0-5.392 2.242-5.392 5.349 0 3.083 2.335 5.349 5.392 5.349 1.861 0 2.697-1.108 2.697-1.108v.462c0 .217.166.378.389.378h2.25V9.946h-2.25c-.223 0-.39.19-.39.379m0 6.512c-.417.595-1.248 1.108-2.25 1.108-1.78 0-3.142-1.08-3.142-2.922 0-1.837 1.362-2.917 3.142-2.917.974 0 1.861.54 2.25 1.108zm4.306-6.89h2.668v10.162h-2.668zm39.86-.273c-1.832 0-2.696 1.08-2.696 1.08v-5.7h-2.668v15.055h2.25c.223 0 .39-.189.39-.378v-.457s.863 1.107 2.695 1.107c3.029 0 5.393-2.27 5.393-5.349 0-3.087-2.36-5.358-5.364-5.358m-.442 8.243c-1.03 0-1.832-.512-2.25-1.108v-3.623c.418-.54 1.306-1.107 2.25-1.107 1.78 0 3.143 1.08 3.143 2.916-.005 1.842-1.362 2.922-3.143 2.922m-6.313-3.836v6.056H74.19v-5.76c0-1.676-.555-2.35-2.055-2.35-.807 0-1.638.407-2.17 1.002v7.08h-2.667V9.946h2.112c.223 0 .39.19.39.379v.434c.778-.785 1.808-1.08 2.833-1.08q1.752-.002 2.92.973c.944.753 1.305 1.727 1.305 3.43M60.823 9.675c-1.832 0-2.696 1.08-2.696 1.08v-5.7h-2.668V20.11h2.25c.223 0 .39-.189.39-.378v-.457s.863 1.107 2.695 1.107c3.029 0 5.393-2.27 5.393-5.349.028-3.087-2.336-5.358-5.364-5.358m-.446 8.243c-1.03 0-1.833-.512-2.25-1.108v-3.623c.417-.54 1.305-1.107 2.25-1.107 1.78 0 3.142 1.08 3.142 2.916 0 1.842-1.362 2.922-3.142 2.922m-7.23-8.243c.807 0 1.225.134 1.225.134v2.404s-2.222-.729-3.613.813v7.107h-2.667V9.946h2.25c.223 0 .389.19.389.379v.434c.498-.568 1.585-1.085 2.416-1.085M25.435 19.19c-.138-.323-.28-.674-.418-.974-.223-.485-.446-.946-.64-1.38l-.03-.028a280 280 0 0 0-6.142-12.217l-.085-.161q-.343-.631-.665-1.27c-.28-.484-.555-1.001-1.002-1.486A4.52 4.52 0 0 0 12.927 0c-1.391 0-2.64.595-3.556 1.62-.418.485-.721 1.002-1.002 1.486-.218.425-.436.85-.664 1.27l-.086.16c-2.14 4.053-4.224 8.16-6.142 12.218l-.029.055c-.194.434-.417.891-.64 1.38q-.206.446-.418.974c-.36 1.002-.475 1.948-.332 2.922.303 2.026 1.694 3.729 3.612 4.486a5.9 5.9 0 0 0 2.25.434c.223 0 .498-.028.722-.056a7.5 7.5 0 0 0 2.781-.918c1.14-.623 2.222-1.514 3.447-2.811 1.224 1.297 2.335 2.188 3.446 2.81.916.513 1.86.813 2.782.92.223.027.503.055.721.055.779 0 1.557-.134 2.25-.434a5.76 5.76 0 0 0 3.613-4.486c.227-.951.113-1.897-.247-2.894m-12.537 1.403c-1.5-1.837-2.473-3.568-2.805-5.026-.138-.623-.167-1.163-.086-1.648.057-.434.223-.812.446-1.135.527-.73 1.42-1.191 2.445-1.191 1.03 0 1.946.434 2.445 1.19.223.324.389.702.446 1.136.085.485.057 1.052-.086 1.648-.327 1.43-1.3 3.161-2.805 5.026m11.094 1.27c-.195 1.402-1.168 2.62-2.53 3.16a4.3 4.3 0 0 1-2.113.268 5.6 5.6 0 0 1-2.112-.701c-1.002-.54-2.003-1.38-3.171-2.622 1.832-2.187 2.948-4.19 3.365-5.972a6.6 6.6 0 0 0 .138-2.299 4.3 4.3 0 0 0-.75-1.837c-.864-1.218-2.307-1.92-3.921-1.92s-3.057.73-3.92 1.92a4.3 4.3 0 0 0-.751 1.837 5.5 5.5 0 0 0 .138 2.299c.417 1.782 1.557 3.812 3.36 6-1.139 1.241-2.169 2.081-3.17 2.622a5.5 5.5 0 0 1-2.113.701 4.6 4.6 0 0 1-2.112-.268c-1.363-.54-2.336-1.758-2.53-3.161a4.3 4.3 0 0 1 .251-2.11c.081-.272.223-.54.361-.862.195-.434.418-.891.64-1.353l.03-.055A288 288 0 0 1 9.194 5.377l.086-.162c.223-.406.446-.835.67-1.241a6 6 0 0 1 .778-1.19 2.95 2.95 0 0 1 2.221-1.002c.864 0 1.638.35 2.222 1.001.304.35.555.757.778 1.19.223.407.447.84.67 1.242l.085.162a347 347 0 0 1 6.086 12.162v.027c.223.434.417.919.64 1.353.138.322.28.595.361.863.228.706.309 1.38.2 2.081"/></g></g><defs><clipPath id="a"><path fill="#fff" d="M0 0h89v27H0z"/></clipPath></defs></svg>
